X:36
T:Gan Ainm
R:Polka
S:Seamus Begley, Kerry (accordian)
D:"River of Sound"
M:2/4
L:1/8
Z:Bernie Stocks
K:G
BGGA Bcd2 | ecdB ced2 | BGGA Bcd2 | ecdB c4 || 
G2FD ECC2 | DEED GBd2 | G2FD ECC2 | DEED G2d2 ||
<end>
<start>
